icons/Color/scalable/gimp-color-pick-from-screen.svg

<svg height="16" viewBox="0 0 16 16" width="16" xmlns="http://www.w3.org/2000/svg" xmlns:xlink="http://www.w3.org/1999/xlink"><linearGradient id="a" gradientTransform="matrix(.952387 0 0 1.018339 1.142599 -1.941627)" gradientUnits="userSpaceOnUse" x1="25.861118" x2="18.300278" y1="26.133587" y2="19.567596"><stop offset="0" stop-color="#c3c6c0"/><stop offset="1" stop-color="#e8eae6"/></linearGradient><linearGradient id="b" gradientTransform="matrix(.952387 0 0 1.018339 1.142599 -1.941627)" gradientUnits="userSpaceOnUse" x1=".001214" x2="47.998764" y1="24.012266" y2="24.012266"><stop offset="0" stop-color="#a9aaa7"/><stop offset="1" stop-color="#676964"/></linearGradient><radialGradient id="c" cx="23.994133" cy="32.266911" gradientTransform="matrix(1.768625 0 0 1.387102 -18.44248 -15.29268)" gradientUnits="userSpaceOnUse" r="19.088932"><stop offset="0" stop-color="#5187d6"/><stop offset="1" stop-color="#1e4580"/></radialGradient><linearGradient id="d" gradientTransform="matrix(.952387 0 0 1.015657 1.142599 -.876325)" gradientUnits="userSpaceOnUse" x1="20.338758" x2="46.092255" xlink:href="#e" y1="19.636894" y2="39.708324"/><linearGradient id="e"><stop offset="0" stop-color="#fff"/><stop offset="1" stop-color="#fff" stop-opacity="0"/></linearGradient><linearGradient id="f" gradientUnits="userSpaceOnUse" x1="35.694206" x2="15.044075" xlink:href="#e" y1="37.333858" y2="5.958857"/><linearGradient id="g" gradientTransform="matrix(.45949087 .45589994 -.45949087 .45589994 121.58064 -71.627847)" gradientUnits="userSpaceOnUse" x1="-37.5" x2="-37.5" xlink:href="#e" y1="199.3438" y2="204.34621"/><g stroke-linecap="round" stroke-linejoin="round" transform="matrix(.26224071 0 0 .28101849 -.293696 3.674)"><rect fill="url(#a)" fill-rule="evenodd" height="41.701817" rx="4.565991" ry="4.565993" stroke="url(#b)" width="44.759838" x="1.619949" y="1.66008"/><rect fill="url(#c)" fill-rule="evenodd" height="28.954594" rx="1.694671" stroke="#173562" width="37.177864" x="5.405202" y="5.481555"/><g fill="none"><rect height="39.646549" rx="4.130333" ry="4.130334" stroke="url(#d)" width="42.894741" x="2.553669" y="2.654434"/><rect height="30.646179" opacity=".573864" rx="2.569672" stroke="url(#f)" width="39.349869" x="4.319206" y="4.635767"/></g></g><g transform="translate(1.82285 -1.2071)"><path d="m9.8343554 4.1370085-5.7138711 5.6977598v1.3240377h1.32997l5.7138647-5.7022084z" fill="#d3d7cf" fill-rule="evenodd" stroke="#888a85" stroke-width=".666669"/><path d="m9.9011892 4.516309.4607148.4765917-5.2437213 5.1942183-.0229581-.9293285z" fill="#fff"/><path d="m13.353849 2.0284512c-.656193-.653186-1.721297-.6532504-2.37749-.0000645-.300755.2994172-.465289.6878085-.490359 1.0798104l-1.1887323.5620197 2.3923513 2.3814757.579501-1.1685265c.393823-.024952.783987-.1887799 1.084735-.4881326.656187-.653186.65618-1.7133962-.000006-2.3665822z" fill="#183968" stroke="#2e3436" stroke-linecap="round" stroke-linejoin="round" stroke-width=".666669"/><path d="m12.910907 2.4559782c-.45293-.4493837-1.034368-.4025111-1.457094.016892-.19375.1922614-.237119.7317153-.24478.9918678l-.624261.330365.962049.9545373.347341-.6050883c.262195-.00761.777196-.022179.970939-.214376.422726-.4194678.498729-1.0248141.04581-1.4741978z" fill="none" opacity=".589958" stroke="url(#g)" stroke-linecap="round" stroke-width=".666669"/><path d="m7.615798 6.769288-3.1703916 3.1319529v.9409331h.8863521l4.0819436-4.072886z" fill="#3465a4" fill-rule="evenodd"/><path d="m7.6173121 6.769288h.947474l-4.1197956 4.072886v-.9431252z" fill="#729fcf"/></g></svg>

<?xml version="1.0" encoding="UTF-8" standalone="no"?>
<svg
   xmlns:dc="http://purl.org/dc/elements/1.1/"
   xmlns:cc="http://creativecommons.org/ns#"
   xmlns:rdf="http://www.w3.org/1999/02/22-rdf-syntax-ns#"
   xmlns:svg="http://www.w3.org/2000/svg"
   xmlns="http://www.w3.org/2000/svg"
   xmlns:xlink="http://www.w3.org/1999/xlink"
   xmlns:sodipodi="http://sodipodi.sourceforge.net/DTD/sodipodi-0.dtd"
   xmlns:inkscape="http://www.inkscape.org/namespaces/inkscape"
   width="16"
   height="16"
   viewBox="0 0 16 16"
   id="svg30571"
   version="1.1"
   inkscape:version="0.91+devel r"
   sodipodi:docname="gimp-color-pick-from-screen.svg">
  <defs
     id="defs30573">
    <linearGradient
       inkscape:collect="always"
       xlink:href="#linearGradient2206"
       id="linearGradient2212"
       x1="25.861118"
       y1="26.133587"
       x2="18.300278"
       y2="19.567596"
       gradientUnits="userSpaceOnUse"
       gradientTransform="matrix(0.952387,0,0,1.018339,1.142599,-1.941627)" />
    <linearGradient
       id="linearGradient2206">
      <stop
         style="stop-color:#c3c6c0;stop-opacity:1.0000000;"
         offset="0.0000000"
         id="stop2208" />
      <stop
         style="stop-color:#e8eae6;stop-opacity:1.0000000;"
         offset="1.0000000"
         id="stop2210" />
    </linearGradient>
    <linearGradient
       inkscape:collect="always"
       xlink:href="#linearGradient2214"
       id="linearGradient2220"
       x1="0.0012142062"
       y1="24.012266"
       x2="47.998764"
       y2="24.012266"
       gradientUnits="userSpaceOnUse"
       gradientTransform="matrix(0.952387,0,0,1.018339,1.142599,-1.941627)" />
    <linearGradient
       id="linearGradient2214">
      <stop
         style="stop-color:#a9aaa7;stop-opacity:1.0000000;"
         offset="0.0000000"
         id="stop2216" />
      <stop
         style="stop-color:#676964;stop-opacity:1.0000000;"
         offset="1.0000000"
         id="stop2218" />
    </linearGradient>
    <radialGradient
       inkscape:collect="always"
       xlink:href="#linearGradient2222"
       id="radialGradient2229"
       cx="23.994133"
       cy="32.266911"
       fx="23.994133"
       fy="32.266911"
       r="19.088932"
       gradientTransform="matrix(1.768625,0,0,1.387102,-18.44248,-15.29268)"
       gradientUnits="userSpaceOnUse" />
    <linearGradient
       id="linearGradient2222">
      <stop
         style="stop-color:#5187d6;stop-opacity:1;"
         offset="0"
         id="stop2224" />
      <stop
         style="stop-color:#1e4580;stop-opacity:1;"
         offset="1"
         id="stop2227" />
    </linearGradient>
    <linearGradient
       inkscape:collect="always"
       xlink:href="#linearGradient2238"
       id="linearGradient2244"
       x1="20.338758"
       y1="19.636894"
       x2="46.092255"
       y2="39.708324"
       gradientUnits="userSpaceOnUse"
       gradientTransform="matrix(0.952387,0,0,1.015657,1.142599,-0.876325)" />
    <linearGradient
       inkscape:collect="always"
       id="linearGradient2238">
      <stop
         style="stop-color:#ffffff;stop-opacity:1;"
         offset="0"
         id="stop2240" />
      <stop
         style="stop-color:#ffffff;stop-opacity:0;"
         offset="1"
         id="stop2242" />
    </linearGradient>
    <linearGradient
       inkscape:collect="always"
       xlink:href="#linearGradient2238"
       id="linearGradient2231"
       x1="35.694206"
       y1="37.333858"
       x2="15.044075"
       y2="5.9588566"
       gradientUnits="userSpaceOnUse" />
    <linearGradient
       inkscape:collect="always"
       xlink:href="#linearGradient2238"
       id="linearGradient7319"
       gradientUnits="userSpaceOnUse"
       gradientTransform="matrix(0.45949087,0.45589994,-0.45949087,0.45589994,121.58064,-71.627847)"
       x1="-37.5"
       y1="199.3438"
       x2="-37.5"
       y2="204.34621" />
  </defs>
  <sodipodi:namedview
     id="base"
     pagecolor="#ffffff"
     bordercolor="#666666"
     borderopacity="1"
     inkscape:pageopacity="0"
     inkscape:pageshadow="2"
     inkscape:zoom="25.339173"
     inkscape:cx="3.1757398"
     inkscape:cy="12.488086"
     inkscape:document-units="px"
     inkscape:current-layer="layer1"
     showgrid="true"
     units="px"
     inkscape:snap-page="true"
     inkscape:snap-bbox="true"
     inkscape:bbox-paths="true"
     inkscape:bbox-nodes="true"
     inkscape:snap-bbox-edge-midpoints="true"
     inkscape:snap-bbox-midpoints="true"
     inkscape:object-paths="true"
     inkscape:snap-intersection-paths="true"
     inkscape:object-nodes="true"
     inkscape:snap-smooth-nodes="true"
     inkscape:snap-midpoints="true"
     inkscape:snap-object-midpoints="true"
     inkscape:snap-center="true"
     inkscape:snap-text-baseline="true"
     showborder="false"
     inkscape:window-width="1920"
     inkscape:window-height="1016"
     inkscape:window-x="0"
     inkscape:window-y="27"
     inkscape:window-maximized="1"
     inkscape:snap-global="false"
     showguides="false">
    <inkscape:grid
       type="xygrid"
       id="grid4266" />
  </sodipodi:namedview>
  <metadata
     id="metadata30576">
    <rdf:RDF>
      <cc:Work
         rdf:about="">
        <dc:format>
          image/svg+xml
        </dc:format>
        <dc:type
           rdf:resource="http://purl.org/dc/dcmitype/StillImage" />
        <dc:creator>
          <cc:Agent>
            <dc:title>Klaus Staedtler       </dc:title>
          </cc:Agent>
        </dc:creator>
        <dc:title />
      </cc:Work>
    </rdf:RDF>
  </metadata>
  <g
     inkscape:label="Layer 1"
     inkscape:groupmode="layer"
     id="layer1"
     transform="translate(0,-1036.3622)">
    <g
       id="g3981">
      <g
         id="g3992"
         transform="matrix(0.26224071,0,0,0.28101849,-0.29369617,1040.0362)">
        <g
           id="g5022"
           transform="matrix(0.02454499,0,0,0.02086758,45.89369,40.09109)" />
        <rect
           style="opacity:1;fill:url(#linearGradient2212);fill-opacity:1;fill-rule:evenodd;stroke:url(#linearGradient2220);stroke-width:0.9999997;stroke-linecap:round;stroke-linejoin:round;stroke-miterlimit:4;stroke-dasharray:none;stroke-dashoffset:0;stroke-opacity:1"
           id="rect1316"
           width="44.759838"
           height="41.701817"
           x="1.6199486"
           y="1.6600797"
           rx="4.5659914"
           ry="4.5659928" />
        <rect
           style="opacity:1;fill:url(#radialGradient2229);fill-opacity:1;fill-rule:evenodd;stroke:#173562;stroke-width:0.99999982;stroke-linecap:round;stroke-linejoin:round;stroke-miterlimit:4;stroke-dasharray:none;stroke-dashoffset:0;stroke-opacity:1"
           id="rect1314"
           width="37.177864"
           height="28.954594"
           x="5.4052019"
           y="5.4815545"
           rx="1.6946707"
           ry="1.694671" />
        <rect
           style="opacity:1;fill:none;fill-opacity:1;fill-rule:evenodd;stroke:url(#linearGradient2244);stroke-width:0.99999982;stroke-linecap:round;stroke-linejoin:round;stroke-miterlimit:4;stroke-dasharray:none;stroke-dashoffset:0;stroke-opacity:1"
           id="rect2232"
           width="42.894741"
           height="39.646549"
           x="2.553669"
           y="2.6544337"
           rx="4.1303334"
           ry="4.1303344" />
        <rect
           ry="2.5696716"
           rx="2.5696716"
           y="4.635767"
           x="4.3192058"
           height="30.646179"
           width="39.349869"
           id="rect2221"
           style="opacity:0.57386361;fill:none;fill-opacity:1;fill-rule:evenodd;stroke:url(#linearGradient2231);stroke-width:1;stroke-linecap:round;stroke-linejoin:round;stroke-miterlimit:4;stroke-dasharray:none;stroke-dashoffset:0;stroke-opacity:1" />
      </g>
      <g
         id="g4033"
         transform="translate(1.8228502,1035.1551)">
        <path
           inkscape:connector-curvature="0"
           style="fill:#d3d7cf;fill-opacity:1;fill-rule:evenodd;stroke:#888a85;stroke-width:0.66666895px;stroke-linecap:butt;stroke-linejoin:miter;stroke-opacity:1"
           d="M 9.8343554,4.1370085 4.1204843,9.8347683 v 1.3240377 h 1.32997 L 11.164319,5.4565976 Z"
           id="path7235"
           sodipodi:nodetypes="cccccc" />
        <path
           inkscape:connector-curvature="0"
           style="fill:#ffffff;fill-opacity:1;stroke:none;stroke-width:1;stroke-linecap:round;stroke-linejoin:round;stroke-miterlimit:4;stroke-dashoffset:0;stroke-opacity:1"
           d="M 9.9011892,4.516309 10.361904,4.9929007 5.1181827,10.187119 5.0952246,9.2577905 Z"
           id="path17734"
           sodipodi:nodetypes="ccccc" />
        <path
           inkscape:connector-curvature="0"
           style="opacity:1;fill:#183968;fill-opacity:1;stroke:#2e3436;stroke-width:0.66666859;stroke-linecap:round;stroke-linejoin:round;stroke-miterlimit:4;stroke-dasharray:none;stroke-dashoffset:0;stroke-opacity:1"
           d="M 13.353849,2.0284512 C 12.697656,1.3752652 11.632552,1.3752008 10.976359,2.0283867 10.675604,2.3278039 10.51107,2.7161952 10.486,3.1081971 L 9.2972677,3.6702168 11.689619,6.0516925 12.26912,4.883166 c 0.393823,-0.024952 0.783987,-0.1887799 1.084735,-0.4881326 0.656187,-0.653186 0.65618,-1.7133962 -6e-6,-2.3665822 z"
           id="path7237"
           sodipodi:nodetypes="csccccsc" />
        <path
           inkscape:connector-curvature="0"
           style="opacity:0.58995816;fill:none;fill-opacity:1;stroke:url(#linearGradient7319);stroke-width:0.66666883;stroke-linecap:round;stroke-linejoin:miter;stroke-miterlimit:4;stroke-dasharray:none;stroke-dashoffset:0;stroke-opacity:1"
           d="m 12.910907,2.4559782 c -0.45293,-0.4493837 -1.034368,-0.4025111 -1.457094,0.016892 -0.19375,0.1922614 -0.237119,0.7317153 -0.24478,0.9918678 l -0.624261,0.330365 0.962049,0.9545373 0.347341,-0.6050883 c 0.262195,-0.00761 0.777196,-0.022179 0.970939,-0.214376 0.422726,-0.4194678 0.498729,-1.0248141 0.04581,-1.4741978 z"
           id="path7247"
           sodipodi:nodetypes="csccccsc" />
        <path
           inkscape:connector-curvature="0"
           style="fill:#3465a4;fill-opacity:1;fill-rule:evenodd;stroke:none;stroke-width:1.00000024px;stroke-linecap:butt;stroke-linejoin:miter;stroke-opacity:1"
           d="M 7.615798,6.769288 4.4454064,9.9012409 V 10.842174 H 5.3317585 L 9.4137021,6.769288 Z"
           id="path7284"
           sodipodi:nodetypes="cccccc" />
        <path
           inkscape:connector-curvature="0"
           style="fill:#729fcf;fill-opacity:1;stroke:none;stroke-width:1;stroke-linecap:round;stroke-linejoin:round;stroke-miterlimit:4;stroke-dashoffset:0;stroke-opacity:1"
           d="m 7.6173121,6.769288 h 0.947474 L 4.4449905,10.842174 V 9.8990488 Z"
           id="path7286"
           sodipodi:nodetypes="ccccc" />
      </g>
    </g>
  </g>
</svg>
